!!!COM: Palestrina, Giovanni Perluigi da
!!!OPR: In festis Apostolorum (I)
!!!OTL: Credo
**kern	**kern	**kern	**kern	**kern
*Ibass	*Itenor	*Itenor	*Icalto	*Icant
!Bassus	!Tenor 2	!Tenor 1	!Altus	!Cantus
*clefF4	*clefGv2	*clefGv2	*clefG2	*clefG2
*k[]	*k[]	*k[]	*k[]	*k[]
*D:dor	*D:dor	*D:dor	*D:dor	*D:dor
*M4/2	*M4/2	*M4/2	*M4/2	*M4/2
=1	=1	=1	=1	=1
0r	1E	0r	0r	0r
.	2G	.	.	.
.	2A	.	.	.
=2	=2	=2	=2	=2
0r	2B	0r	0r	2r
.	2.c	.	.	2e
.	.	.	.	2g
.	4B	.	.	.
.	2A	.	.	2a
=3	=3	=3	=3	=3
0r	2G#	0r	2r	2b
.	2.A	.	2A	2.cc
.	.	.	2c	.
.	4G	.	.	4b
.	2F	.	2d	2a
=4	=4	=4	=4	=4
0r	2E	2r	2e	2g#
.	2D	2A	2f	1a
.	2A	2c	2e	.
.	2B	2d	[2d	2g#
=5	=5	=5	=5	=5
1r	1A	1e	4d]	0a
.	.	.	4c#	.
.	.	.	2c#	.
2r	1r	2f	2d	.
2AA	.	[2e	[2c	.
=6	=6	=6	=6	=6
2C	1r	2e]	4c]	0r
.	.	.	4B	.
2D	.	4d	1A	.
.	.	4c	.	.
1E	2.e	1B	.	.
.	.	.	2G#	.
.	4d	.	.	.
=7	=7	=7	=7	=7
1F	4c	2.A	4A	0r
.	4B	.	4B	.
.	2A	.	4c	.
.	.	4B	4d	.
2E	2G	2c	2e	.
[2D	2F	2d	2f	.
=8	=8	=8	=8	=8
2D]	1E	1e	1g	1r
2C#	.	.	.	.
1D	1D	1A	1f	1a
=9	=9	=9	=9	=9
1r	0r	2r	1e	2b
.	.	1A	.	2.cc
2r	.	.	2f	.
.	.	.	.	4cc
[2E	.	2B	[2g	2b
=10	=10	=10	=10	=10
2E]	1r	1.c	2g]	2g
2F	.	.	2f	2a
1G	2r	.	2e	1g
.	2B	2B	[2d	.
=11	=11	=11	=11	=11
2F	1c	2A	4d]	0r
.	.	.	4c	.
2E	.	2.G	2c	.
2.D	1d	.	2B	.
.	.	8F	.	.
.	.	8E	.	.
.	.	4F	[2A	.
4E	.	4G	.	.
=12	=12	=12	=12	=12
2F	2c	2A	2A]	0r
2G	2B	1G	1d	.
1D	2A	.	.	.
.	2A	2F#	2d	.
=13	=13	=13	=13	=13
2r	2G	1G	2d	1b
2G	2d	.	1g	.
1A	1c	1r	.	1cc
.	.	.	2f#	.
=14	=14	=14	=14	=14
1G	1.d	2.B	2g	1b
.	.	.	2G	.
.	.	4c	.	.
2F	.	2d	2A	2a
[2G	2d	2B	2G	[2b
=15	=15	=15	=15	=15
2G]	2B	2G	1d	2b]
2F	2d	2A	.	1a
1E	1e	2B	2r	.
.	.	2B	2e	2g#
=16	=16	=16	=16	=16
1D	2r	1d	1f	2.a
.	1A	.	.	.
.	.	.	.	4b
1E	.	2r	[1e	2cc
.	2G#	2B	.	2b
=17	=17	=17	=17	=17
2r	2.A	1c	1e]	1a
1A	.	.	.	.
.	4A	.	.	.
.	2E	2.B	1e	2r
2G#	2E	.	.	2b
.	.	4B	.	.
=18	=18	=18	=18	=18
2A	2A	2A	[0e	2cc
2E	2B	2G#	.	2b
2AA	2c	2A	.	2a
2E	2B	4G	.	[2b
.	.	4F	.	.
=19	=19	=19	=19	=19
2.C	1c	[0E	1e]	2b]
.	.	.	.	1a
4D	.	.	.	.
1E	2.B	.	1e	.
.	.	.	.	2g#
.	4B	.	.	.
=20	=20	=20	=20	=20
[0AA	[0A	1E_	[0c#	[0a
.	.	1E_	.	.
=21	=21	=21	=21	=21
0AA]	0A]	0E]	0c#]	0a]
!! Et ex Patre
*Ibass	*Itenor	*Itenor	*Icalto	*Icant
!Bassus	!Tenor 2	!Tenor 1	!Altus	!Cantus
*clefF4	*clefGv2	*clefGv2	*clefG2	*clefG2
*k[]	*k[]	*k[]	*k[]	*k[]
*D:dor	*D:dor	*D:dor	*D:dor	*D:dor
*M4/2	*M4/2	*M4/2	*M4/2	*M4/2
=22	=22	=22	=22	=22
0r	0r	1r	1e	0r
.	.	2r	2f	.
.	.	2B	[2g	.
=23	=23	=23	=23	=23
1r	0r	2c	2g]	0r
.	.	1d	2f	.
2r	.	.	1e	.
2E	.	[2c	.	.
=24	=24	=24	=24	=24
2F	0r	2c]	0d	0r
1G	.	4B	.	.
.	.	4A	.	.
.	.	2B	.	.
2F	.	[2A	.	.
=25	=25	=25	=25	=25
1E	1B	4A]	1e	0r
.	.	4G#	.	.
.	.	4G#	.	.
.	.	8F#	.	.
.	.	8G#	.	.
2AA	2c	[1A	2e	.
4D	[2d	.	[2f	.
4E	.	.	.	.
=26	=26	=26	=26	=26
4F	2d]	1A]	2f]	0r
4G	.	.	.	.
1A	2c	.	2e	.
.	1B	1E	1e	.
2G#	.	.	.	.
=27	=27	=27	=27	=27
1A	1A	2r	2c	1r
.	.	2e	2c	.
1r	1r	2A	2e	1a
.	.	[2d	[2f	.
=28	=28	=28	=28	=28
0r	2r	2d]	2f]	2d
.	2A	2c#	2e	1a
.	2D	4d	4f	.
.	.	4c	4e	.
.	[2d	2B-	2d	2g
=29	=29	=29	=29	=29
0r	2d]	1A	1e	0a
.	2c#	.	.	.
.	2d	4D	2.f	.
.	.	4E	.	.
.	[2c	2F	.	.
.	.	.	8e	.
.	.	.	8d	.
=30	=30	=30	=30	=30
1r	4c]	2C	2e	2g
.	4B	.	.	.
.	2A	2D	1d	2f
2r	1r	[1A	.	1e
2A	.	.	2c	.
=31	=31	=31	=31	=31
2D	2r	1A]	4A	2f
.	.	.	4B	.
1A	2e	.	4c	4e
.	.	.	4d	4d
.	2A	1r	4e	2c
.	.	.	4f	.
2G	[2d	.	2g	2B
=32	=32	=32	=32	=32
1A	2d]	0r	2.e	2A
.	2c	.	.	2a
.	.	.	8d	.
.	.	.	8c	.
2G	1d	.	2B	2d
2F	.	.	2A	[2a
=33	=33	=33	=33	=33
1E	2c	1r	2r	2a]
.	2B	.	2e	2g#
[1D	1d	2r	2A	2a
.	.	2A	[2d	[2f
=34	=34	=34	=34	=34
2D]	1A	2D	2d]	2f]
2AA	.	1A	2c	2e
2BB-	2D	.	2.d	1d
2BB-	[2d	2G	.	.
.	.	.	4e	.
=35	=35	=35	=35	=35
1AA	2d]	1A	2f	2r
.	2c	.	1e	2a
2C	2c	2G	.	2e
2D	4B	2F	2d	2f
.	4A	.	.	.
=36	=36	=36	=36	=36
2.C	1c	[0E	0e	2g
.	.	.	.	1a
4D	.	.	.	.
1E	2.B	.	.	.
.	.	.	.	2g#
.	4B	.	.	.
=37	=37	=37	=37	=37
[0AA	[0A	1E_	[0c#	[0a
.	.	1E_	.	.
=38	=38	=38	=38	=38
0AA]	0A]	0E]	0c#]	0a]
!! Genitum
*Ibass	*Itenor	*Itenor	*Icalto	*Icant
!Bassus	!Tenor 2	!Tenor 1	!Altus	!Cantus
*clefF4	*clefGv2	*clefGv2	*clefG2	*clefG2
*k[]	*k[]	*k[]	*k[]	*k[]
*D:dor	*D:dor	*D:dor	*D:dor	*D:dor
*M4/2	*M4/2	*M4/2	*M4/2	*M4/2
=39	=39	=39	=39	=39
1.D	0r	1r	0r	0r
.	.	[1A	.	.
2C	.	.	.	.
=40	=40	=40	=40	=40
2D	0r	2A]	0r	0r
2E	.	2G	.	.
2F	.	2A	.	.
4E	.	2B	.	.
4D	.	.	.	.
=41	=41	=41	=41	=41
2E	2r	2c	0r	0r
2D	1D	4B	.	.
.	.	4A	.	.
2GG	.	2B	.	.
2AA	2C	[2A	.	.
=42	=42	=42	=42	=42
1BB-	1D	2A]	2r	1r
.	.	2G	1d	.
1AA	2E	1A	.	2r
.	[2F	.	2c	[2a
=43	=43	=43	=43	=43
0r	2F]	0r	2d	2a]
.	2E	.	2e	2g
.	1D	.	2f	2a
.	.	.	4e	2b
.	.	.	4d	.
=44	=44	=44	=44	=44
0r	4C	0r	1e	2cc
.	4D	.	.	.
.	4E	.	.	4b
.	4F	.	.	4a
.	2G	.	2d	2b
.	2A	.	2c	[2a
=45	=45	=45	=45	=45
0r	2D	1d	1B-	2a]
.	1d	.	.	2g
.	.	1e	1A	1a
.	2c	.	.	.
=46	=46	=46	=46	=46
1D	4B	1d	0r	0r
.	4A	.	.	.
.	1A	.	.	.
1E	.	2c	.	.
.	2G	[2B	.	.
=47	=47	=47	=47	=47
2D	2F	2B]	0r	0r
2C	2E	2A	.	.
2BB	2D	2G#	.	.
2AA	2C	2A	.	.
=48	=48	=48	=48	=48
2GG	0D	2B	1r	0r
2AA	.	1A	.	.
1BB	.	.	2r	.
.	.	2G#	[2d	.
=49	=49	=49	=49	=49
1AA	2E	1A	2d]	1e
.	2A	.	2c	.
1r	2B	1r	2d	1g
.	[2c	.	2e	.
=50	=50	=50	=50	=50
0r	4c]	0r	2A	1a
.	4B	.	.	.
.	4A	.	2.c	.
.	4G	.	.	.
.	2F	.	.	2a
.	.	.	4d	.
.	2G	.	2B	2d
=51	=51	=51	=51	=51
0r	1D	0r	2A	1f
.	.	.	2.d	.
.	2A	.	.	1e
.	.	.	4c#	.
.	2A	.	4c#	.
.	.	.	8d	.
.	.	.	8e	.
=52	=52	=52	=52	=52
2r	2.D	1r	1.f	4d
.	.	.	.	4e
1D	.	.	.	4f
.	4E	.	.	4g
.	4F	2r	.	4a
.	4G	.	.	4b
2C	2A	2E	2e	4cc
.	.	.	.	4a
=53	=53	=53	=53	=53
2BB	2r	1G	1d	4b
.	.	.	.	4cc
2BB	2D	.	.	1dd
1AA	1E	1A	2r	.
.	.	.	[2a	2cc#
=54	=54	=54	=54	=54
0D	2.F	2A	4a]	1dd
.	.	.	4g	.
.	.	2D	2.f	.
.	4G	.	.	.
.	1A	1F	.	4d
.	.	.	4e	4e
.	.	.	[2d	4f
.	.	.	.	4g
=55	=55	=55	=55	=55
0AA	1.A	0E	2d]	1a
.	.	.	4c#	.
.	.	.	4B	.
.	.	.	1c#	1a
.	2E	.	.	.
=56	=56	=56	=56	=56
[0D	[0F#	[0D	[0d	[0a
=57	=57	=57	=57	=57
0D]	0F#]	0D]	0d]	0a]
!! Et incarnatus
*Ibass	*Itenor	*Itenor	*Icalto	*Icant
!Bassus	!Tenor 2	!Tenor 1	!Altus	!Cantus
*clefF4	*clefGv2	*clefGv2	*clefG2	*clefG2
*k[]	*k[]	*k[]	*k[]	*k[]
*D:dor	*D:dor	*D:dor	*D:dor	*D:dor
*M4/2	*M4/2	*M4/2	*M4/2	*M4/2
=58	=58	=58	=58	=58
1A	0r	1r	0r	0r
1G	.	1d	.	.
=59	=59	=59	=59	=59
1A	1r	1c	0r	0r
2G	2r	1d	.	.
2F	[2A	.	.	.
=60	=60	=60	=60	=60
1E	2A]	2c	1e	1r
.	2G	2B	.	.
1F	1A	2A	1d	1a
.	.	2D	.	.
=61	=61	=61	=61	=61
1E	2c	0r	1e	1g
.	2B	.	.	.
1F	2.A	.	2d	1a
.	.	.	[2c	.
.	4B	.	.	.
=62	=62	=62	=62	=62
2E	2c	0r	4c]	2g
.	.	.	8B	.
.	.	.	8A	.
2D	2d	.	2B	2f
1C	1G	.	2c	1e
.	.	.	2e	.
=63	=63	=63	=63	=63
1C	1c	0r	2.g	2r
.	.	.	.	2e
.	.	.	4f	.
1C	2c	.	4e	1g
.	.	.	4d	.
.	2c	.	2e	.
=64	=64	=64	=64	=64
2D	1A	0r	2d	2f
2AA	.	.	2c	2e
1E	2r	.	1B	1g
.	2B	.	.	.
=65	=65	=65	=65	=65
0AA	2.c	2r	4A	1a
.	.	.	4B	.
.	.	2A	4c	.
.	4B	.	4d	.
.	4A	1c	2.e	2r
.	4G	.	.	.
.	2A	.	.	2e
.	.	.	4c	.
=66	=66	=66	=66	=66
0r	2G	2B	1d	2g
.	2F	2A	.	2a
.	1E	1c	1e	2g
.	.	.	.	2g
=67	=67	=67	=67	=67
2r	1D	1d	1A	2f
1F	.	.	.	1a
.	2F	2c	1r	.
2E	2G	2c	.	2g
=68	=68	=68	=68	=68
2D	2A	2d	0r	2f
2C	2c	2G	.	2e
1BB-	[1d	2B-	.	4f
.	.	.	.	4d
.	.	2B-	.	[2g
=69	=69	=69	=69	=69
1D	2d]	2A	0r	4g]
.	.	.	.	4f
.	2A	4G	.	1f
.	.	4F	.	.
1C	2c	2G	.	.
.	2C	[2c	.	2e
=70	=70	=70	=70	=70
0r	1G	2c]	1g	1d
.	.	2B	.	.
.	2A	2A	2f	2r
.	2B	2G	2e	2g
=71	=71	=71	=71	=71
0r	4c	1F	2f	2a
.	4A	.	.	.
.	2.d	.	2.f	1a
.	.	1A	.	.
.	4c	.	4e	.
.	[2c	.	2c	2f
=72	=72	=72	=72	=72
0r	2c]	0G	1.d	1.g
.	4B	.	.	.
.	4A	.	.	.
.	2B	.	.	.
.	2B	.	2d	2g
=73	=73	=73	=73	=73
1r	1c	1r	1e	1g
1FF	1c	1F	1f	1a
=74	=74	=74	=74	=74
1C	1c	1G	1e	1g
1FF	1c	1F	1f	1a
=75	=75	=75	=75	=75
1C	1c	2G	1e	1g
.	.	2E	.	.
1D	[1A	2.F	1d	1f
.	.	4G	.	.
=76	=76	=76	=76	=76
0AA	2A]	0A	2.c	[0e
.	4G	.	.	.
.	4F	.	8B	.
.	.	.	8A	.
.	1E	.	1c	.
=77	=77	=77	=77	=77
[0E	[0E	[0G#	[0B	1e_
.	.	.	.	1e_
=78	=78	=78	=78	=78
0E]	0E]	0G#]	0B]	0e]
!! Et resurrexit
*Ibass	*Itenor	*Itenor	*Icalto	*Icant
!Bassus	!Tenor 2	!Tenor 1	!Altus	!Cantus
*clefF4	*clefGv2	*clefGv2	*clefG2	*clefG2
*k[]	*k[]	*k[]	*k[]	*k[]
*D:dor	*D:dor	*D:dor	*D:dor	*D:dor
*M4/2	*M4/2	*M4/2	*M4/2	*M4/2
=79	=79	=79	=79	=79
1G	0r	0r	0r	0r
2F	.	.	.	.
2D	.	.	.	.
=80	=80	=80	=80	=80
1F	1r	0r	0r	0r
2G	1d	.	.	.
2D	.	.	.	.
=81	=81	=81	=81	=81
2E	2c	0r	1r	0r
2F	2A	.	.	.
1E	1c	.	1g	.
=82	=82	=82	=82	=82
0D	1d	0r	2f	0r
.	.	.	2d	.
.	1A	.	1f	.
=83	=83	=83	=83	=83
0r	2B	0r	1.g	1r
.	2c	.	.	.
.	1B	.	.	1dd
.	.	.	2d	.
=84	=84	=84	=84	=84
0r	0A	1r	2e	2cc
.	.	.	2f	2a
.	.	2r	1e	1cc
.	.	2A	.	.
=85	=85	=85	=85	=85
1r	0r	2B	2d	2dd
.	.	2c	2e	2a
2r	.	2d	2f	2b
2E	.	4c	2g	[2cc
.	.	4B	.	.
=86	=86	=86	=86	=86
2F	2r	2A	4f	2cc]
.	.	.	4c	.
2G	2B	2G	1e	2.b
1F	2c	1A	.	.
.	.	.	.	4a
.	2d	.	2d	[2a
=87	=87	=87	=87	=87
0E	1c	1r	1.e	2a]
.	.	.	.	4g#
.	.	.	.	4f#
.	1B	2r	.	1g#
.	.	2B	2e	.
=88	=88	=88	=88	=88
1D	1r	2.d	1f	1a
.	.	4c	.	.
1E	1G	4B	1e	1r
.	.	4A	.	.
.	.	2G	.	.
=89	=89	=89	=89	=89
2D	1A	2F	1r	0r
2C	.	2E	.	.
4BB	2G	1D	2r	.
4C	.	.	.	.
[2D	2F	.	2d	.
=90	=90	=90	=90	=90
2D]	1E	1A	1e	0r
2C#	.	.	.	.
1D	1D	2r	2.f	.
.	.	2d	.	.
.	.	.	8e	.
.	.	.	8d	.
=91	=91	=91	=91	=91
0r	0r	1e	2c	1g
.	.	.	2c	.
.	.	2d	2f	1a
.	.	2c	2e	.
=92	=92	=92	=92	=92
1r	0r	4B	1d	2g
.	.	4c	.	.
.	.	2.d	.	2f
1AA	.	.	1A	1e
.	.	8c	.	.
.	.	8B	.	.
.	.	2c	.	.
=93	=93	=93	=93	=93
2BB	1G	2d	2r	2d
2C	.	2.c	2G	2e
2.AA	1A	.	2.c	2f
.	.	4d	.	.
.	.	2e	.	[2e
4BB	.	.	4d	.
=94	=94	=94	=94	=94
2C	2G	4c	2e	2e]
.	.	4B	.	.
2D	2F	4A	1d	2a
.	.	4G	.	.
1AA	1E	1A	.	1a
.	.	.	2c#	.
=95	=95	=95	=95	=95
[0D	[0D	[0A	[0d	[0f#
=96	=96	=96	=96	=96
0D]	0D]	0A]	0d]	0f#]
!! Et iterum
*Ibass	*Itenor	*Itenor	*Icalto	*Icant
!Bassus	!Tenor 2	!Tenor 1	!Altus	!Cantus
*clefF4	*clefGv2	*clefGv2	*clefG2	*clefG2
*k[]	*k[]	*k[]	*k[]	*k[]
*D:dor	*D:dor	*D:dor	*D:dor	*D:dor
*M4/2	*M4/2	*M4/2	*M4/2	*M4/2
=97	=97	=97	=97	=97
1r	1d	0r	0r	0r
1A	1c	.	.	.
=98	=98	=98	=98	=98
2G	2B	1d	0r	0r
2F	2A	.	.	.
2E	2G	2c	.	.
2D	[2F	2B	.	.
=99	=99	=99	=99	=99
1C	2F]	2A	0r	0r
.	2E	2G	.	.
2D	2D	2F	.	.
2E	2C	2G	.	.
=100	=100	=100	=100	=100
1C	1E	2A	0r	0r
.	.	2G	.	.
2.D	[1F	4B-	.	.
.	.	4A	.	.
.	.	[2A	.	.
4C	.	.	.	.
=101	=101	=101	=101	=101
2BB-	2F]	2A]	1r	1dd
2BB-	4E	2G	.	.
.	4D	.	.	.
1AA	2E	1A	2r	1cc
.	2F	.	2a	.
=102	=102	=102	=102	=102
0r	2G	0r	2g	2b
.	2d	.	2f	1a
.	2c	.	2e	.
.	2B	.	2d	2g
=103	=103	=103	=103	=103
0r	2A	0r	2c	2f
.	2G	.	1d	2g
.	2F	.	.	2a
.	2G	.	2e	4g
.	.	.	.	4f
=104	=104	=104	=104	=104
0r	2A	0r	2c	2e
.	2G	.	1e	2g
.	2A	.	.	2.f
.	2B-	.	[2d	.
.	.	.	.	8e
.	.	.	.	8d
=105	=105	=105	=105	=105
0r	2.A	1r	4d]	2e
.	.	.	4c#	.
.	.	.	4c#	2e
.	4G	.	8d	.
.	.	.	8e	.
.	4F	2r	2f	[1a
.	4E	.	.	.
.	2D	[2d	2f	.
=106	=106	=106	=106	=106
2r	1A	2d]	1e	1a]
1A	.	2c	.	.
.	1r	1B	2r	1r
2G	.	.	[2d	.
=107	=107	=107	=107	=107
2F	0r	2A	2d]	0r
2E	.	2G	2c	.
1D	.	2A	2f	.
.	.	2B	2d	.
=108	=108	=108	=108	=108
2C	0r	2c	1e	0r
2E	.	4B	.	.
.	.	4A	.	.
4G	.	2B	2d	.
8F	.	.	.	.
8G	.	.	.	.
[2A	.	2A	2c	.
=109	=109	=109	=109	=109
2A]	2r	1E	2B	1r
2G#	1e	.	2B	.
2A	.	1r	1A	2r
2F	2d	.	.	[2a
=110	=110	=110	=110	=110
1E	2c	1e	1r	2a]
.	2B	.	.	2g
1F	2A	2d	1a	2f
.	2A	[2c	.	2e
=111	=111	=111	=111	=111
1G	2r	2c]	1g	1d
.	2B	2B	.	.
1A	1c	2A	2f	2c
.	.	2c	[2e	2e
=112	=112	=112	=112	=112
2G	2B	1d	2e]	4g
.	.	.	.	8f
.	.	.	.	8g
2F	2A	.	2d	1a
2.E	2r	2c	1e	.
.	2E	2B	.	2g
4D	.	.	.	.
=113	=113	=113	=113	=113
2C	2E	0A	2r	1a
2D	2F	.	1d	.
1AA	2.E	.	.	2r
.	.	.	2c	[2a
.	8D	.	.	.
.	8E	.	.	.
=114	=114	=114	=114	=114
0r	2F	0r	2d	2a]
.	2E	.	2e	2g
.	1D	.	2f	2a
.	.	.	4e	2b
.	.	.	4d	.
=115	=115	=115	=115	=115
0r	0r	1A	4c	1cc
.	.	.	4d	.
.	.	.	4e	.
.	.	.	4f	.
.	.	2G	2g	2b
.	.	2A	[2f	2a
=116	=116	=116	=116	=116
1r	0r	2B	2f]	1g
.	.	2c	2e	.
2r	.	2.F	[1f	[1a
[2D	.	.	.	.
.	.	4G	.	.
=117	=117	=117	=117	=117
2D]	2r	2A	2f]	1a]
2C	1A	2c	2e	.
2D	.	1B	2r	1r
2E	2G	.	[2e	.
=118	=118	=118	=118	=118
1F	2.A	1A	2e]	2r
.	.	.	2d	1a
.	4B	.	.	.
1E	2c	1r	2e	.
.	[2B	.	2e	2g
=119	=119	=119	=119	=119
2D	4B]	2r	2f	1a
.	4A	.	.	.
2C	2A	1A	2e	.
1BB	1D	.	1d	1b
.	.	2G	.	.
=120	=120	=120	=120	=120
2AA	2.E	1A	2.c	1cc
2AA	.	.	.	.
.	4F#	.	4d	.
2E	2G#	2B	[1e	2b
2AA	2A	2c	.	2a
=121	=121	=121	=121	=121
0E	2B	2B	0e]	2g#
.	2c	2A	.	1a
.	2B	1B	.	.
.	2e	.	.	2g#
=122	=122	=122	=122	=122
[0AA	[0c#	[0A	[0e	[0a
=123	=123	=123	=123	=123
0AA]	0c#]	0A]	0e]	0a]
!! Qui cum Patre
*Ibass	*Itenor	*Itenor	*Icalto	*Icant
!Bassus	!Tenor 2	!Tenor 1	!Altus	!Cantus
*clefF4	*clefGv2	*clefGv2	*clefG2	*clefG2
*k[]	*k[]	*k[]	*k[]	*k[]
*D:dor	*D:dor	*D:dor	*D:dor	*D:dor
*M4/2	*M4/2	*M4/2	*M4/2	*M4/2
=124	=124	=124	=124	=124
0r	0r	1r	1.e	0r
.	.	1A	.	.
.	.	.	2c	.
=125	=125	=125	=125	=125
1r	0r	2F	2d	0r
.	.	2G	2e	.
2r	.	2A	2f	.
[2E	.	2B	[2g	.
=126	=126	=126	=126	=126
2E]	0r	2.c	4g]	0r
.	.	.	4f	.
2C	.	.	2e	.
.	.	4B	.	.
2D	.	2A	2d	.
2E	.	2G	2c	.
=127	=127	=127	=127	=127
2F	1r	2A	2.d	0r
1G	.	2B	.	.
.	.	.	4c	.
.	2r	2d	2B	.
2F	[2A	2d	2A	.
=128	=128	=128	=128	=128
1E	2A]	2.e	2B	1r
.	2G	.	1e	.
.	.	4d	.	.
1r	1A	4c	.	1a
.	.	4B	.	.
.	.	2A	2c	.
=129	=129	=129	=129	=129
0r	2B	2r	2d	2g
.	1c	1A	2e	1a
.	.	.	2f	.
.	2B	2G	2e	2b
=130	=130	=130	=130	=130
0r	2A	2A	0e	2cc
.	2G#	2B	.	2.b
.	1A	1c	.	.
.	.	.	.	4a
.	.	.	.	[2a
=131	=131	=131	=131	=131
1r	1E	1B	2r	2a]
.	.	.	2e	2g#
2r	2.F	1A	2c	[1a
[2D	.	.	[2d	.
.	4G	.	.	.
=132	=132	=132	=132	=132
2D]	4A	2r	2d]	1a]
.	4B	.	.	.
2C	2c	1A	2e	.
2D	2B	.	2f	1r
2E	[2c	2G	4e	.
.	.	.	4d	.
=133	=133	=133	=133	=133
1F	2c]	2.A	4c	0r
.	.	.	4B	.
.	1d	.	2A	.
.	.	4A	.	.
1E	.	2B	2G	.
.	2c	2G	[2g	.
=134	=134	=134	=134	=134
1D	2d	1A	2g]	1r
.	2d	.	2f	.
1r	2c	1r	2e	2r
.	2B	.	2d	2dd
=135	=135	=135	=135	=135
0r	2A	0r	1e	2cc
.	2G	.	.	2b
.	2F	.	2f	2a
.	2C	.	2e	2g
=136	=136	=136	=136	=136
0r	1D	1d	4d	1f
.	.	.	4e	.
.	.	.	2.f	.
.	1r	[1c	.	1g
.	.	.	4e	.
.	.	.	4e	.
.	.	.	8d	.
.	.	.	8c	.
=137	=137	=137	=137	=137
1G	2r	2c]	2d	1g
.	2G	2B	2d	.
2F	2A	2A	2d	2r
2E	2B	2G	2e	2g
=138	=138	=138	=138	=138
2.D	1.d	0F	1f	2a
.	.	.	.	2a
4C	.	.	.	.
2BB-	.	.	2d	2b-
2D	2A	.	[2f	2f
=139	=139	=139	=139	=139
0C	0c	0G	2f]	0cc
.	.	.	4e	.
.	.	.	4d	.
.	.	.	1e	.
=140	=140	=140	=140	=140
2.FF	1c	2F	2f	1a
.	.	1A	1c	.
4GG	.	.	.	.
2AA	1r	.	.	2r
2BB-	.	2G	2d	[2d
=141	=141	=141	=141	=141
1AA	0r	2A	2f	2d]
.	.	2A	2e	2c
1r	.	2D	2f	2d
.	.	2A	2c	2e
=142	=142	=142	=142	=142
0r	0r	2B	2d	1g
.	.	2.c	2.e	.
.	.	.	.	[1a
.	.	4B	4d	.
.	.	4A	4c	.
.	.	4G	4B	.
=143	=143	=143	=143	=143
0r	0r	2F	2A	2a]
.	.	2G	2B	2d
.	.	[1A	2c	1f
.	.	.	[2d	.
=144	=144	=144	=144	=144
1r	1r	0A]	2d]	1e
.	.	.	2c#	.
1D	2r	.	4d	1d
.	.	.	4e	.
.	[2D	.	4f	.
.	.	.	4d	.
=145	=145	=145	=145	=145
1AA	2D]	2.A	1e	2r
.	2C	.	.	1a
.	.	4G	.	.
1BB-	1D	2F	2r	.
.	.	2D	[2d	2g
=146	=146	=146	=146	=146
1AA	1E	1A	2d]	1a
.	.	.	2c	.
1GG	1G	2D	2d	1b-
.	.	2G	2e	.
=147	=147	=147	=147	=147
1FF	1.A	2C	2f	1a
.	.	2.c	2f	.
2.F	.	.	2c	[1a
.	.	4B	.	.
.	2D	4A	[2f	.
4E	.	4G	.	.
=148	=148	=148	=148	=148
1D	1F	1A	4f]	2a]
.	.	.	4e	.
.	.	.	1d	2a
1AA	1E	1A	.	1a
.	.	.	2c#	.
=149	=149	=149	=149	=149
[0D	[0D	[0A	[0d	[0f#
=150	=150	=150	=150	=150
0D]	0D]	0A]	0d]	0f#]
!! Confiteor
*Ibass	*Itenor	*Itenor	*Icalto	*Icant
!Bassus	!Tenor 2	!Tenor 1	!Altus	!Cantus
*clefF4	*clefGv2	*clefGv2	*clefG2	*clefG2
*k[]	*k[]	*k[]	*k[]	*k[]
*D:dor	*D:dor	*D:dor	*D:dor	*D:dor
*M4/2	*M4/2	*M4/2	*M4/2	*M4/2
=151	=151	=151	=151	=151
0r	0r	1G	1d	1r
.	.	2.c	2.e	1g
.	.	4c	4e	.
=152	=152	=152	=152	=152
0r	0r	2A	2e	2.a
.	.	2F	2A	.
.	.	.	.	4a
.	.	2A	2c	2a
.	.	[2B-	[2d	2d
=153	=153	=153	=153	=153
0r	0r	4B-]	4d]	2f
.	.	4A	4c	.
.	.	2G	2B	2g
.	.	[1A	2c	1f
.	.	.	[2d	.
=154	=154	=154	=154	=154
0r	1r	1A]	4d]	2.e
.	.	.	4c	.
.	.	.	1c	.
.	.	.	.	4f
.	1d	1G	.	[1g
.	.	.	2B	.
=155	=155	=155	=155	=155
2r	2.e	0r	2c	1g]
2G	.	.	2B	.
.	4e	.	.	.
2.A	2e	.	2.c	1r
.	2A	.	.	.
4A	.	.	4c	.
=156	=156	=156	=156	=156
2A	2c	2r	2e	0r
2D	2d	2A	1f	.
2F	2c	2A	.	.
2G	[2B	2B	[2e	.
=157	=157	=157	=157	=157
1F	4B]	2c	2e]	1r
.	4A	.	.	.
.	1A	4B	2d	.
.	.	4A	.	.
1E	.	1B	[1e	2r
.	2G#	.	.	2e
=158	=158	=158	=158	=158
2r	2A	1A	2e]	2c
1D	1f	.	2A	1d
.	.	2r	1r	.
2C	2e	[2A	.	2e
=159	=159	=159	=159	=159
2D	2d	2A]	1r	2f
2E	2c	2G	.	2e
1G	2B	2B	2r	2.d
.	2G	2B	[2d	.
.	.	.	.	4e
=160	=160	=160	=160	=160
1F	2r	1A	2d]	1f
.	2A	.	2c	.
2E	1B	2G	2e	1r
2D	.	[2d	2f	.
=161	=161	=161	=161	=161
1E	1G	2d]	1.g	0r
.	.	2c	.	.
1D	2A	2.d	.	.
.	[2A	.	2f	.
.	.	4c	.	.
=162	=162	=162	=162	=162
1E	2A]	1B	2.e	1r
.	2G	.	.	.
.	.	.	4d	.
1F	1A	2A	2c	2r
.	.	2D	2d	[2a
=163	=163	=163	=163	=163
2.E	2B	1r	1.e	2a]
.	2.c	.	.	2g
4D	.	.	.	.
2C	.	1A	.	1a
.	4B	.	.	.
2D	[2A	.	2f	.
=164	=164	=164	=164	=164
1BB	2A]	1D	1d	2b
.	2G#	.	.	1dd
1AA	1A	2E	2r	.
.	.	2E	2A	2cc
=165	=165	=165	=165	=165
1GG	2r	1G	2d	1b-
.	2.D	.	4d	.
.	.	.	4e	.
[1D	.	2F	4f	1a
.	4E	.	4g	.
.	4F	2D	[2f	.
.	4G	.	.	.
=166	=166	=166	=166	=166
1D]	2A	1F	4f]	4d
.	.	.	4e	4e
.	2A	.	1d	4f
.	.	.	.	4g
1AA	1A	1E	.	1a
.	.	.	2c#	.
=167	=167	=167	=167	=167
[0D	[0F#	[0D	[0d	[0a
=168	=168	=168	=168	=168
0D]	0F#]	0D]	0d]	0a]
!! Et vitam
*Ibass	*Itenor	*Itenor	*Icalto	*Icant
!Bassus	!Tenor 2	!Tenor 1	!Altus	!Cantus
*clefF4	*clefGv2	*clefGv2	*clefG2	*clefG2
*k[]	*k[]	*k[]	*k[]	*k[]
*D:dor	*D:dor	*D:dor	*D:dor	*D:dor
*M4/2	*M4/2	*M4/2	*M4/2	*M4/2
=169	=169	=169	=169	=169
1D	1r	0r	0r	0r
2C	1A	.	.	.
2AA	.	.	.	.
=170	=170	=170	=170	=170
1C	2G	1r	0r	0r
.	2E	.	.	.
1D	2.F	1d	.	.
.	4D	.	.	.
=171	=171	=171	=171	=171
1AA	2E	2c	1a	0r
.	2F	2A	.	.
1r	1E	1c	2g	.
.	.	.	2e	.
=172	=172	=172	=172	=172
0r	2D	1d	1f	0a
.	2d	.	.	.
.	2c	1A	1e	.
.	2A	.	.	.
=173	=173	=173	=173	=173
0r	4B	0r	2d	2g
.	8A	.	.	.
.	8B	.	.	.
.	2c	.	2.e	2e
.	1d	.	.	1f
.	.	.	4d	.
.	.	.	[2d	.
=174	=174	=174	=174	=174
0r	2.A	2r	2d]	1e
.	.	1A	2c#	.
.	4G	.	.	.
.	2F	.	2d	2d
.	2E	2G	4c	[2e
.	.	.	4B	.
=175	=175	=175	=175	=175
2r	1F	2c	1A	4e]
.	.	.	.	4d
2A	.	2A	.	1d
2G	2.E	2B	1r	.
2E	.	2G	.	2c#
.	4E	.	.	.
=176	=176	=176	=176	=176
1F	2D	1A	2r	1d
.	2A	.	2a	.
2E	2B	1e	2g	1r
2C	2c	.	2e	.
=177	=177	=177	=177	=177
2D	2A	2d	2f	1r
2E	2G	2B	1e	.
1AA	1A	1c	.	2r
.	.	.	[2e	2a
=178	=178	=178	=178	=178
1r	1E	1B	4e]	2g
.	.	.	4d	.
.	.	.	4B	2e
.	.	.	4c	.
1D	2r	2A	2d	1f
.	2F	[2B	2d	.
=179	=179	=179	=179	=179
2C	2G	2B]	2e	1e
2AA	2A	1A	2c	.
2BB	2D	.	2d	2d
[2C	[2G	2G	[2c	[2e
=180	=180	=180	=180	=180
2C]	2G]	0A	2c]	2e]
2D	2F	.	2A	1d
2AA	2E	.	2.e	.
2AA	2E	.	.	2c#
.	.	.	4e	.
=181	=181	=181	=181	=181
[0D	[0D	[0A	[0f#	[0d
=182	=182	=182	=182	=182
0D]	0D]	0A]	0f#]	0d]
=183	=183	=183	=183	=183
2.F	1r	0r	0r	0r
4G	.	.	.	.
2A	2.F	.	.	.
2D	.	.	.	.
.	4G	.	.	.
=184	=184	=184	=184	=184
2.F	2A	1r	0r	0r
.	2D	.	.	.
4G	.	.	.	.
2.A	2.F	2r	.	.
.	.	[2c	.	.
4G	4G	.	.	.
=185	=185	=185	=185	=185
4F	2A	2c]	0r	2.f
4E	.	.	.	.
1D	2F	2d	.	.
.	.	.	.	4g
.	1E	1e	.	[1a
2C#	.	.	.	.
=186	=186	=186	=186	=186
0D	2D	0A	2.f	2a]
.	2.F	.	.	2d
.	.	.	4g	.
.	.	.	2a	2.f
.	4G	.	.	.
.	2A	.	2d	.
.	.	.	.	4g
=187	=187	=187	=187	=187
0r	0D	0r	2.f	2.a
.	.	.	4g	4g
.	.	.	2.a	4f
.	.	.	.	4e
.	.	.	.	[2d
.	.	.	4g	.
=188	=188	=188	=188	=188
0r	0r	2.F	4f	4d]
.	.	.	4e	4c
.	.	.	2d	2f
.	.	4G	.	.
.	.	2A	2c	2e
.	.	2D	[2f	[2a
=189	=189	=189	=189	=189
1r	1r	2.F	4f]	4a]
.	.	.	4e	4g
.	.	.	1d	2f
.	.	4G	.	.
1AA	2r	2.A	.	1e
.	[2A	.	2c#	.
.	.	4G	.	.
=190	=190	=190	=190	=190
2.D	2A]	4F	[0d	2d
.	.	4E	.	.
.	2.d	1D	.	2a
4C	.	.	.	.
4BB-	.	.	.	2.dd
4AA	4c	.	.	.
[2GG	4B-	[2G	.	.
.	4A	.	.	4cc
=191	=191	=191	=191	=191
2GG]	2G	2G]	0d]	2b-
2D	2F#	2A	.	2a
1GG	1G	1B-	.	1g
=192	=192	=192	=192	=192
[0D	[0F#	[0A	[0d	[0a
=193	=193	=193	=193	=193
0D]	0F#]	0A]	0d]	0a]
==	==	==	==	==
*-	*-	*-	*-	*-
!!!CDT: 1525/^1526/-1594/2/2
!!!OCY: Italia
!!!AGN: Mass (Paraphrase)
!!!AST: renaissance, vocal
!!!ASW: Gregorian Mass
!!!PWK: Masses, Book Mantuan II
!!!RNB: Cadence finals: A,E
!!!YOR: Le Opere Complete, v. 19, p. 43
!!!YOO: Rome, Italy: Fratelli Scalera
!!!END: 1992//
!!!EED: John Miller
!!!YEC: Copyright 2000, John Miller
!!!YEN: United States of America
!!!YEM: Rights to all derivative electronic formats reserved.
!!!YEM: Refer to licensing agreement for further details.
!!!YEM: This file must be accompanied by the licensing agreement.
!!!YEM: A copy of the licensing agreement may be found at http://www.music-cog.ohio-state.edu/HumdrumDatabases/Palestrina/license.txt
!!!EMD: converted to Humdrum by Bret Aarden
